assets/img/ca-breast/priors.svg

<svg height="137" viewBox="0 0 700 137" width="700" xmlns="http://www.w3.org/2000/svg"><g fill="none" fill-rule="evenodd"><path d="m0 0h700v137h-700z" fill="#fff"/><path d="m127 109h450" stroke="#000" stroke-linecap="round" stroke-linejoin="round" stroke-width="3"/><path d="m566.2 112 10.8-3-10.8-3" stroke="#000" stroke-linecap="round" stroke-linejoin="round" stroke-width="3"/><rect fill="#fff" fill-rule="evenodd" height="90" rx="3" width="75" x="148"/><rect height="87" rx="3" stroke="#000" stroke-width="3" width="72" x="149.5" y="1.5"/><rect fill="#fff" fill-rule="evenodd" height="90" rx="3" width="75" x="314"/><rect height="87" rx="3" stroke="#000" stroke-width="3" width="72" x="315.5" y="1.5"/><rect fill="#fff" fill-rule="evenodd" height="90" rx="3" width="75" x="479"/><g stroke="#000" stroke-width="3"><rect height="87" rx="3" width="72" x="480.5" y="1.5"/><path d="m350.5 91.5v15" stroke-linecap="square"/><path d="m185.5 91.5v15" stroke-linecap="square"/><path d="m516.5 91.5v15" stroke-linecap="square"/></g><path d="m501.35 122.128h-3.942v10.872h-2.016v-10.872h-3.942v-1.692h9.9zm5.85 11.088c-2.736 0-4.41-1.89-4.41-4.86s1.674-4.86 4.41-4.86 4.41 1.89 4.41 4.86-1.674 4.86-4.41 4.86zm0-1.548c1.422 0 2.358-.882 2.358-2.61v-1.404c0-1.728-.936-2.61-2.358-2.61s-2.358.882-2.358 2.61v1.404c0 1.728.936 2.61 2.358 2.61zm12.816 1.332v-1.584h-.108c-.54 1.116-1.44 1.8-2.808 1.8-2.178 0-3.582-1.674-3.582-4.86s1.404-4.86 3.582-4.86c1.368 0 2.268.684 2.808 1.8h.108v-5.616h1.962v13.32zm-2.106-1.386c1.134 0 2.106-.576 2.106-1.71v-3.096c0-1.134-.972-1.71-2.106-1.71-1.476 0-2.322.99-2.322 2.502v1.512c0 1.512.846 2.502 2.322 2.502zm15.552 1.386h-1.206c-1.116 0-1.674-.63-1.782-1.566h-.09c-.36 1.116-1.332 1.782-2.79 1.782-1.89 0-3.114-1.062-3.114-2.808 0-1.8 1.314-2.772 4.068-2.772h1.782v-.72c0-1.242-.666-1.89-1.998-1.89-1.188 0-1.89.504-2.394 1.278l-1.17-.954c.522-1.008 1.782-1.854 3.744-1.854 2.34 0 3.78 1.17 3.78 3.294v4.662h1.17zm-5.31-1.224c1.26 0 2.178-.63 2.178-1.548v-1.35h-1.746c-1.44 0-2.124.45-2.124 1.278v.36c0 .828.648 1.26 1.692 1.26zm12.69-4.176 1.476-3.888h1.98l-4.5 11.088c-.486 1.188-1.152 1.8-2.628 1.8h-1.566v-1.584h2.196l.846-2.142-3.744-9.162h2.052l1.476 3.888 1.152 3.186h.108z" fill="#000"/><path d="m318.97 133h-8.586v-1.674h3.528v-9.414h-.144l-2.916 3.114-1.242-1.116 3.204-3.474h3.114v10.89h3.042zm18.072-5.4 1.476-3.888h1.98l-4.5 11.088c-.486 1.188-1.152 1.8-2.628 1.8h-1.566v-1.584h2.196l.846-2.142-3.744-9.162h2.052l1.476 3.888 1.152 3.186h.108zm5.526 5.4v-1.584h2.466v-6.12h-2.466v-1.584h4.428v2.466h.108c.36-1.296 1.17-2.466 3.06-2.466h1.116v1.872h-1.836c-1.602 0-2.448 1.062-2.448 2.358v3.474h3.366v1.584zm30.294 0h-1.206c-1.116 0-1.674-.63-1.782-1.566h-.09c-.36 1.116-1.332 1.782-2.79 1.782-1.89 0-3.114-1.062-3.114-2.808 0-1.8 1.314-2.772 4.068-2.772h1.782v-.72c0-1.242-.666-1.89-1.998-1.89-1.188 0-1.89.504-2.394 1.278l-1.17-.954c.522-1.008 1.782-1.854 3.744-1.854 2.34 0 3.78 1.17 3.78 3.294v4.662h1.17zm-5.31-1.224c1.26 0 2.178-.63 2.178-1.548v-1.35h-1.746c-1.44 0-2.124.45-2.124 1.278v.36c0 .828.648 1.26 1.692 1.26zm16.308 2.232c0 1.908-1.602 2.808-4.878 2.808-3.204 0-4.32-.846-4.32-2.232 0-1.008.594-1.53 1.62-1.8v-.18c-.63-.234-1.026-.648-1.026-1.35 0-.918.702-1.332 1.674-1.566v-.09c-1.116-.522-1.782-1.512-1.782-2.844 0-1.98 1.494-3.258 3.78-3.258.648 0 1.242.108 1.746.306v-.306c0-.72.414-1.26 1.242-1.26h1.692v1.548h-2.16v.432c.81.558 1.26 1.422 1.26 2.538 0 1.98-1.494 3.24-3.78 3.24-.414 0-.792-.036-1.152-.108-.432.108-.972.396-.972.9 0 .576.63.648 1.44.648h2.088c2.502 0 3.528 1.044 3.528 2.574zm-1.836.126c0-.63-.432-1.026-1.746-1.026h-3.222c-.45.216-.684.558-.684 1.044 0 .702.54 1.278 1.908 1.278h1.458c1.476 0 2.286-.45 2.286-1.296zm-3.096-5.49c1.26 0 1.854-.666 1.854-1.656v-.486c0-.99-.594-1.656-1.854-1.656s-1.854.666-1.854 1.656v.486c0 .99.594 1.656 1.854 1.656zm10.872 4.572c-2.736 0-4.41-1.89-4.41-4.86s1.674-4.86 4.41-4.86 4.41 1.89 4.41 4.86-1.674 4.86-4.41 4.86zm0-1.548c1.422 0 2.358-.882 2.358-2.61v-1.404c0-1.728-.936-2.61-2.358-2.61s-2.358.882-2.358 2.61v1.404c0 1.728.936 2.61 2.358 2.61z" fill="#000"/><path d="m147.21 131.29v1.71h-8.676v-1.926l4.104-3.582c1.278-1.134 2.034-2.142 2.034-3.276v-.198c0-1.314-.756-2.052-2.106-2.052-1.386 0-2.088.828-2.43 1.98l-1.764-.666c.504-1.584 1.782-3.06 4.338-3.06 2.61 0 4.086 1.548 4.086 3.69 0 1.998-1.278 3.366-3.042 4.824l-3.042 2.556zm18.432-3.69 1.476-3.888h1.98l-4.5 11.088c-.486 1.188-1.152 1.8-2.628 1.8h-1.566v-1.584h2.196l.846-2.142-3.744-9.162h2.052l1.476 3.888 1.152 3.186h.108zm5.526 5.4v-1.584h2.466v-6.12h-2.466v-1.584h4.428v2.466h.108c.36-1.296 1.17-2.466 3.06-2.466h1.116v1.872h-1.836c-1.602 0-2.448 1.062-2.448 2.358v3.474h3.366v1.584zm14.85.216c-1.998 0-3.474-.702-4.356-1.782l1.206-1.08c.81.882 1.8 1.368 3.186 1.368 1.26 0 2.124-.414 2.124-1.332 0-.792-.63-1.008-1.422-1.116l-1.476-.234c-1.458-.216-3.096-.738-3.096-2.646 0-1.89 1.584-2.898 3.96-2.898 1.728 0 2.97.54 3.816 1.458l-1.098 1.152c-.486-.558-1.332-1.116-2.79-1.116-1.278 0-1.962.432-1.962 1.242 0 .792.648 1.008 1.422 1.116l1.476.234c1.476.216 3.096.72 3.096 2.628 0 1.872-1.548 3.006-4.086 3.006zm26.244-.216h-1.206c-1.116 0-1.674-.63-1.782-1.566h-.09c-.36 1.116-1.332 1.782-2.79 1.782-1.89 0-3.114-1.062-3.114-2.808 0-1.8 1.314-2.772 4.068-2.772h1.782v-.72c0-1.242-.666-1.89-1.998-1.89-1.188 0-1.89.504-2.394 1.278l-1.17-.954c.522-1.008 1.782-1.854 3.744-1.854 2.34 0 3.78 1.17 3.78 3.294v4.662h1.17zm-5.31-1.224c1.26 0 2.178-.63 2.178-1.548v-1.35h-1.746c-1.44 0-2.124.45-2.124 1.278v.36c0 .828.648 1.26 1.692 1.26zm16.308 2.232c0 1.908-1.602 2.808-4.878 2.808-3.204 0-4.32-.846-4.32-2.232 0-1.008.594-1.53 1.62-1.8v-.18c-.63-.234-1.026-.648-1.026-1.35 0-.918.702-1.332 1.674-1.566v-.09c-1.116-.522-1.782-1.512-1.782-2.844 0-1.98 1.494-3.258 3.78-3.258.648 0 1.242.108 1.746.306v-.306c0-.72.414-1.26 1.242-1.26h1.692v1.548h-2.16v.432c.81.558 1.26 1.422 1.26 2.538 0 1.98-1.494 3.24-3.78 3.24-.414 0-.792-.036-1.152-.108-.432.108-.972.396-.972.9 0 .576.63.648 1.44.648h2.088c2.502 0 3.528 1.044 3.528 2.574zm-1.836.126c0-.63-.432-1.026-1.746-1.026h-3.222c-.45.216-.684.558-.684 1.044 0 .702.54 1.278 1.908 1.278h1.458c1.476 0 2.286-.45 2.286-1.296zm-3.096-5.49c1.26 0 1.854-.666 1.854-1.656v-.486c0-.99-.594-1.656-1.854-1.656s-1.854.666-1.854 1.656v.486c0 .99.594 1.656 1.854 1.656zm10.872 4.572c-2.736 0-4.41-1.89-4.41-4.86s1.674-4.86 4.41-4.86 4.41 1.89 4.41 4.86-1.674 4.86-4.41 4.86zm0-1.548c1.422 0 2.358-.882 2.358-2.61v-1.404c0-1.728-.936-2.61-2.358-2.61s-2.358.882-2.358 2.61v1.404c0 1.728.936 2.61 2.358 2.61z" fill="#000"/><circle cx="185.5" cy="46.5" fill="#00f" r="5.5"/><circle cx="350.5" cy="45.5" fill="#00f" r="9.5"/><circle cx="516.5" cy="45.5" fill="#00f" r="13.5"/></g></svg>

<?xml version="1.0" encoding="UTF-8"?>
<svg width="700px" height="137px" viewBox="0 0 700 137" version="1.1" xmlns="http://www.w3.org/2000/svg" xmlns:xlink="http://www.w3.org/1999/xlink">
    <!-- Generator: Sketch 49.3 (51167) - http://www.bohemiancoding.com/sketch -->
    <title>priors</title>
    <desc>Created with Sketch.</desc>
    <defs>
        <rect id="path-1" x="148" y="0" width="75" height="90" rx="3"></rect>
        <rect id="path-2" x="314" y="0" width="75" height="90" rx="3"></rect>
        <rect id="path-3" x="479" y="0" width="75" height="90" rx="3"></rect>
    </defs>
    <g id="Page-1" stroke="none" stroke-width="1" fill="none" fill-rule="evenodd">
        <g id="Artboard" transform="translate(-794.000000, -599.000000)">
            <g id="priors" transform="translate(794.000000, 599.000000)">
                <rect id="Rectangle-15" fill="#FFFFFF" x="0" y="0" width="700" height="137"></rect>
                <path d="M127,109 L577,109" id="Line-3" stroke="#000000" stroke-width="3" stroke-linecap="round" stroke-linejoin="round"></path>
                <path id="Line-3-decoration-1" d="M566.2,112 L577,109 L566.2,106" stroke="#000000" stroke-width="3" stroke-linecap="round" stroke-linejoin="round"></path>
                <g id="Rectangle-14">
                    <use fill="#FFFFFF" fill-rule="evenodd" xlink:href="#path-1"></use>
                    <rect stroke="#000000" stroke-width="3" x="149.5" y="1.5" width="72" height="87" rx="3"></rect>
                </g>
                <g id="Rectangle-14-Copy-6">
                    <use fill="#FFFFFF" fill-rule="evenodd" xlink:href="#path-2"></use>
                    <rect stroke="#000000" stroke-width="3" x="315.5" y="1.5" width="72" height="87" rx="3"></rect>
                </g>
                <g id="Rectangle-14-Copy-7">
                    <use fill="#FFFFFF" fill-rule="evenodd" xlink:href="#path-3"></use>
                    <rect stroke="#000000" stroke-width="3" x="480.5" y="1.5" width="72" height="87" rx="3"></rect>
                </g>
                <path d="M350.5,91.5 L350.5,106.5" id="Line-4" stroke="#000000" stroke-width="3" stroke-linecap="square"></path>
                <path d="M185.5,91.5 L185.5,106.5" id="Line-4-Copy" stroke="#000000" stroke-width="3" stroke-linecap="square"></path>
                <path d="M516.5,91.5 L516.5,106.5" id="Line-4-Copy-2" stroke="#000000" stroke-width="3" stroke-linecap="square"></path>
                <path d="M501.35,122.128 L497.408,122.128 L497.408,133 L495.392,133 L495.392,122.128 L491.45,122.128 L491.45,120.436 L501.35,120.436 L501.35,122.128 Z M507.2,133.216 C504.464,133.216 502.79,131.326 502.79,128.356 C502.79,125.386 504.464,123.496 507.2,123.496 C509.936,123.496 511.61,125.386 511.61,128.356 C511.61,131.326 509.936,133.216 507.2,133.216 Z M507.2,131.668 C508.622,131.668 509.558,130.786 509.558,129.058 L509.558,127.654 C509.558,125.926 508.622,125.044 507.2,125.044 C505.778,125.044 504.842,125.926 504.842,127.654 L504.842,129.058 C504.842,130.786 505.778,131.668 507.2,131.668 Z M520.016,133 L520.016,131.416 L519.908,131.416 C519.368,132.532 518.468,133.216 517.1,133.216 C514.922,133.216 513.518,131.542 513.518,128.356 C513.518,125.17 514.922,123.496 517.1,123.496 C518.468,123.496 519.368,124.18 519.908,125.296 L520.016,125.296 L520.016,119.68 L521.978,119.68 L521.978,133 L520.016,133 Z M517.91,131.614 C519.044,131.614 520.016,131.038 520.016,129.904 L520.016,126.808 C520.016,125.674 519.044,125.098 517.91,125.098 C516.434,125.098 515.588,126.088 515.588,127.6 L515.588,129.112 C515.588,130.624 516.434,131.614 517.91,131.614 Z M533.462,133 L532.256,133 C531.14,133 530.582,132.37 530.474,131.434 L530.384,131.434 C530.024,132.55 529.052,133.216 527.594,133.216 C525.704,133.216 524.48,132.154 524.48,130.408 C524.48,128.608 525.794,127.636 528.548,127.636 L530.33,127.636 L530.33,126.916 C530.33,125.674 529.664,125.026 528.332,125.026 C527.144,125.026 526.442,125.53 525.938,126.304 L524.768,125.35 C525.29,124.342 526.55,123.496 528.512,123.496 C530.852,123.496 532.292,124.666 532.292,126.79 L532.292,131.452 L533.462,131.452 L533.462,133 Z M528.152,131.776 C529.412,131.776 530.33,131.146 530.33,130.228 L530.33,128.878 L528.584,128.878 C527.144,128.878 526.46,129.328 526.46,130.156 L526.46,130.516 C526.46,131.344 527.108,131.776 528.152,131.776 Z M540.842,127.6 L542.318,123.712 L544.298,123.712 L539.798,134.8 C539.312,135.988 538.646,136.6 537.17,136.6 L535.604,136.6 L535.604,135.016 L537.8,135.016 L538.646,132.874 L534.902,123.712 L536.954,123.712 L538.43,127.6 L539.582,130.786 L539.69,130.786 L540.842,127.6 Z" id="Today" fill="#000000"></path>
                <path d="M318.97,133 L310.384,133 L310.384,131.326 L313.912,131.326 L313.912,121.912 L313.768,121.912 L310.852,125.026 L309.61,123.91 L312.814,120.436 L315.928,120.436 L315.928,131.326 L318.97,131.326 L318.97,133 Z M337.042,127.6 L338.518,123.712 L340.498,123.712 L335.998,134.8 C335.512,135.988 334.846,136.6 333.37,136.6 L331.804,136.6 L331.804,135.016 L334,135.016 L334.846,132.874 L331.102,123.712 L333.154,123.712 L334.63,127.6 L335.782,130.786 L335.89,130.786 L337.042,127.6 Z M342.568,133 L342.568,131.416 L345.034,131.416 L345.034,125.296 L342.568,125.296 L342.568,123.712 L346.996,123.712 L346.996,126.178 L347.104,126.178 C347.464,124.882 348.274,123.712 350.164,123.712 L351.28,123.712 L351.28,125.584 L349.444,125.584 C347.842,125.584 346.996,126.646 346.996,127.942 L346.996,131.416 L350.362,131.416 L350.362,133 L342.568,133 Z M372.862,133 L371.656,133 C370.54,133 369.982,132.37 369.874,131.434 L369.784,131.434 C369.424,132.55 368.452,133.216 366.994,133.216 C365.104,133.216 363.88,132.154 363.88,130.408 C363.88,128.608 365.194,127.636 367.948,127.636 L369.73,127.636 L369.73,126.916 C369.73,125.674 369.064,125.026 367.732,125.026 C366.544,125.026 365.842,125.53 365.338,126.304 L364.168,125.35 C364.69,124.342 365.95,123.496 367.912,123.496 C370.252,123.496 371.692,124.666 371.692,126.79 L371.692,131.452 L372.862,131.452 L372.862,133 Z M367.552,131.776 C368.812,131.776 369.73,131.146 369.73,130.228 L369.73,128.878 L367.984,128.878 C366.544,128.878 365.86,129.328 365.86,130.156 L365.86,130.516 C365.86,131.344 366.508,131.776 367.552,131.776 Z M383.86,134.008 C383.86,135.916 382.258,136.816 378.982,136.816 C375.778,136.816 374.662,135.97 374.662,134.584 C374.662,133.576 375.256,133.054 376.282,132.784 L376.282,132.604 C375.652,132.37 375.256,131.956 375.256,131.254 C375.256,130.336 375.958,129.922 376.93,129.688 L376.93,129.598 C375.814,129.076 375.148,128.086 375.148,126.754 C375.148,124.774 376.642,123.496 378.928,123.496 C379.576,123.496 380.17,123.604 380.674,123.802 L380.674,123.496 C380.674,122.776 381.088,122.236 381.916,122.236 L383.608,122.236 L383.608,123.784 L381.448,123.784 L381.448,124.216 C382.258,124.774 382.708,125.638 382.708,126.754 C382.708,128.734 381.214,129.994 378.928,129.994 C378.514,129.994 378.136,129.958 377.776,129.886 C377.344,129.994 376.804,130.282 376.804,130.786 C376.804,131.362 377.434,131.434 378.244,131.434 L380.332,131.434 C382.834,131.434 383.86,132.478 383.86,134.008 Z M382.024,134.134 C382.024,133.504 381.592,133.108 380.278,133.108 L377.056,133.108 C376.606,133.324 376.372,133.666 376.372,134.152 C376.372,134.854 376.912,135.43 378.28,135.43 L379.738,135.43 C381.214,135.43 382.024,134.98 382.024,134.134 Z M378.928,128.644 C380.188,128.644 380.782,127.978 380.782,126.988 L380.782,126.502 C380.782,125.512 380.188,124.846 378.928,124.846 C377.668,124.846 377.074,125.512 377.074,126.502 L377.074,126.988 C377.074,127.978 377.668,128.644 378.928,128.644 Z M389.8,133.216 C387.064,133.216 385.39,131.326 385.39,128.356 C385.39,125.386 387.064,123.496 389.8,123.496 C392.536,123.496 394.21,125.386 394.21,128.356 C394.21,131.326 392.536,133.216 389.8,133.216 Z M389.8,131.668 C391.222,131.668 392.158,130.786 392.158,129.058 L392.158,127.654 C392.158,125.926 391.222,125.044 389.8,125.044 C388.378,125.044 387.442,125.926 387.442,127.654 L387.442,129.058 C387.442,130.786 388.378,131.668 389.8,131.668 Z" id="1-yr-ago" fill="#000000"></path>
                <path d="M147.21,131.29 L147.21,133 L138.534,133 L138.534,131.074 L142.638,127.492 C143.916,126.358 144.672,125.35 144.672,124.216 L144.672,124.018 C144.672,122.704 143.916,121.966 142.566,121.966 C141.18,121.966 140.478,122.794 140.136,123.946 L138.372,123.28 C138.876,121.696 140.154,120.22 142.71,120.22 C145.32,120.22 146.796,121.768 146.796,123.91 C146.796,125.908 145.518,127.276 143.754,128.734 L140.712,131.29 L147.21,131.29 Z M165.642,127.6 L167.118,123.712 L169.098,123.712 L164.598,134.8 C164.112,135.988 163.446,136.6 161.97,136.6 L160.404,136.6 L160.404,135.016 L162.6,135.016 L163.446,132.874 L159.702,123.712 L161.754,123.712 L163.23,127.6 L164.382,130.786 L164.49,130.786 L165.642,127.6 Z M171.168,133 L171.168,131.416 L173.634,131.416 L173.634,125.296 L171.168,125.296 L171.168,123.712 L175.596,123.712 L175.596,126.178 L175.704,126.178 C176.064,124.882 176.874,123.712 178.764,123.712 L179.88,123.712 L179.88,125.584 L178.044,125.584 C176.442,125.584 175.596,126.646 175.596,127.942 L175.596,131.416 L178.962,131.416 L178.962,133 L171.168,133 Z M186.018,133.216 C184.02,133.216 182.544,132.514 181.662,131.434 L182.868,130.354 C183.678,131.236 184.668,131.722 186.054,131.722 C187.314,131.722 188.178,131.308 188.178,130.39 C188.178,129.598 187.548,129.382 186.756,129.274 L185.28,129.04 C183.822,128.824 182.184,128.302 182.184,126.394 C182.184,124.504 183.768,123.496 186.144,123.496 C187.872,123.496 189.114,124.036 189.96,124.954 L188.862,126.106 C188.376,125.548 187.53,124.99 186.072,124.99 C184.794,124.99 184.11,125.422 184.11,126.232 C184.11,127.024 184.758,127.24 185.532,127.348 L187.008,127.582 C188.484,127.798 190.104,128.302 190.104,130.21 C190.104,132.082 188.556,133.216 186.018,133.216 Z M212.262,133 L211.056,133 C209.94,133 209.382,132.37 209.274,131.434 L209.184,131.434 C208.824,132.55 207.852,133.216 206.394,133.216 C204.504,133.216 203.28,132.154 203.28,130.408 C203.28,128.608 204.594,127.636 207.348,127.636 L209.13,127.636 L209.13,126.916 C209.13,125.674 208.464,125.026 207.132,125.026 C205.944,125.026 205.242,125.53 204.738,126.304 L203.568,125.35 C204.09,124.342 205.35,123.496 207.312,123.496 C209.652,123.496 211.092,124.666 211.092,126.79 L211.092,131.452 L212.262,131.452 L212.262,133 Z M206.952,131.776 C208.212,131.776 209.13,131.146 209.13,130.228 L209.13,128.878 L207.384,128.878 C205.944,128.878 205.26,129.328 205.26,130.156 L205.26,130.516 C205.26,131.344 205.908,131.776 206.952,131.776 Z M223.26,134.008 C223.26,135.916 221.658,136.816 218.382,136.816 C215.178,136.816 214.062,135.97 214.062,134.584 C214.062,133.576 214.656,133.054 215.682,132.784 L215.682,132.604 C215.052,132.37 214.656,131.956 214.656,131.254 C214.656,130.336 215.358,129.922 216.33,129.688 L216.33,129.598 C215.214,129.076 214.548,128.086 214.548,126.754 C214.548,124.774 216.042,123.496 218.328,123.496 C218.976,123.496 219.57,123.604 220.074,123.802 L220.074,123.496 C220.074,122.776 220.488,122.236 221.316,122.236 L223.008,122.236 L223.008,123.784 L220.848,123.784 L220.848,124.216 C221.658,124.774 222.108,125.638 222.108,126.754 C222.108,128.734 220.614,129.994 218.328,129.994 C217.914,129.994 217.536,129.958 217.176,129.886 C216.744,129.994 216.204,130.282 216.204,130.786 C216.204,131.362 216.834,131.434 217.644,131.434 L219.732,131.434 C222.234,131.434 223.26,132.478 223.26,134.008 Z M221.424,134.134 C221.424,133.504 220.992,133.108 219.678,133.108 L216.456,133.108 C216.006,133.324 215.772,133.666 215.772,134.152 C215.772,134.854 216.312,135.43 217.68,135.43 L219.138,135.43 C220.614,135.43 221.424,134.98 221.424,134.134 Z M218.328,128.644 C219.588,128.644 220.182,127.978 220.182,126.988 L220.182,126.502 C220.182,125.512 219.588,124.846 218.328,124.846 C217.068,124.846 216.474,125.512 216.474,126.502 L216.474,126.988 C216.474,127.978 217.068,128.644 218.328,128.644 Z M229.2,133.216 C226.464,133.216 224.79,131.326 224.79,128.356 C224.79,125.386 226.464,123.496 229.2,123.496 C231.936,123.496 233.61,125.386 233.61,128.356 C233.61,131.326 231.936,133.216 229.2,133.216 Z M229.2,131.668 C230.622,131.668 231.558,130.786 231.558,129.058 L231.558,127.654 C231.558,125.926 230.622,125.044 229.2,125.044 C227.778,125.044 226.842,125.926 226.842,127.654 L226.842,129.058 C226.842,130.786 227.778,131.668 229.2,131.668 Z" id="2-yrs-ago" fill="#000000"></path>
                <circle id="Oval-6" fill="#0000FF" cx="185.5" cy="46.5" r="5.5"></circle>
                <circle id="Oval-6-Copy" fill="#0000FF" cx="350.5" cy="45.5" r="9.5"></circle>
                <circle id="Oval-6-Copy-2" fill="#0000FF" cx="516.5" cy="45.5" r="13.5"></circle>
            </g>
        </g>
    </g>
</svg>
